!!!OTL: 699d. Es geht auch ohne dich!
!!!ARE: Europa, Mitteleuropa, Deutschland, Schlesien
!!!SCT: E0699E
!!!TXL: @@DE
!!!YEM: Copyright 1995, estate of Helmut Schaffrath.
**kern	**text
*ICvox	*
*M3/4	*
*k[f#]	*
*G:	*
=1	=1
!LO:TX:a:t=Mäßig.	!
!LO:TX:a:t=Schleſiſch.	!
{8g	An
8d	dem
4g	Him-
4b/	-mel
=2	=2
8a	ſind
8g	ʒwei
4a	Ster-
4cc}	-ne,
=3	=3
{8b/	leuch-
8g	-ten
4b	hel-
4dd	-ler
=4	=4
8dd	als
8b	der
4a	Mond,
8r}	.
{8b	der
=5	=5
8dd	ei-
8cc	-ne
4b	ſcheint
4dd	auf
=6	=6
8ee	mein
8cc	Feins-
4a	-lieb-
8cc}	-chen,
{8b	der
=7	=7
8dd	and-
8b	-re
4g	auf
4b/	die
=8	=8
16bL	grü-
16aJ	.
8a	-ne
4g	Au.
8r}	.
{8b	der
=9	=9
8dd	ei-
8cc	-ne
4b	ſcheint
4dd	auf
=10	=10
8ee	mein
8cc	Feins-
4a	-lieb-
8cc}	-chen,
{8b	der
=11	=11
8dd	and-
8b/	-re
4g	auf
4b/	die
=12	=12
16bL	grü-
16aJ	.
8a	-ne
4g	Au.
4r}	.
==	==
!!!AGN: Liebes - Lied, Leid, Klage
!!!ONB: ESAC (Essen Associative Code) Database: ERK2
!!!AMT: simple triple
!!!AIN: vox
!!!EED: Helmut Schaffrath
!!!EEV: 1.0
!!!GTL: Liebeslieder [Neuere (aus dem 18. bis 19. Jahrh.) - Liebesleid] 678-740
!!!URL-scan: https://rosdok.uni-rostock.de/mcrviewer/recordIdentifier/rosdok_ppn745177662/iview2/phys_0504.iview2?x=72.97952720689091&y=778.9922378633637&scale=0.7029437510502773&rotation=0&layout=singlePageLayout
!!!ENC: Anna Maria Matuszewska
!!!EEV: 2024/12/16
*-	*-
